svg/fluentui-system-icons/ic_fluent_align_left_24_filled.svg

<svg width="24" height="24" viewBox="0 0 24 24" fill="none" xmlns="http://www.w3.org/2000/svg">
<path d="M3 2.75C3 2.33579 3.33579 2 3.75 2C4.16421 2 4.5 2.33579 4.5 2.75V21.25C4.5 21.6642 4.16421 22 3.75 22C3.33579 22 3 21.6642 3 21.25V2.75ZM8.25 4C7.00736 4 6 5.00736 6 6.25V8.75C6 9.99264 7.00736 11 8.25 11L18.75 11C19.9926 11 21 9.99264 21 8.75V6.25C21 5.00736 19.9926 4 18.75 4L8.25 4ZM8.25 13C7.00736 13 6 14.0074 6 15.25V17.75C6 18.9926 7.00736 20 8.25 20H15.25C16.4926 20 17.5 18.9926 17.5 17.75V15.25C17.5 14.0074 16.4926 13 15.25 13L8.25 13Z" fill="#212121"/>
</svg>

<svg xmlns="http://www.w3.org/2000/svg" width="24" height="24"><path d="M3 2.75a.75.75 0 0 1 1.5 0v18.5a.75.75 0 0 1-1.5 0V2.75ZM8.25 4A2.25 2.25 0 0 0 6 6.25v2.5A2.25 2.25 0 0 0 8.25 11h10.5A2.25 2.25 0 0 0 21 8.75v-2.5A2.25 2.25 0 0 0 18.75 4H8.25Zm0 9A2.25 2.25 0 0 0 6 15.25v2.5A2.25 2.25 0 0 0 8.25 20h7a2.25 2.25 0 0 0 2.25-2.25v-2.5A2.25 2.25 0 0 0 15.25 13h-7Z"/></svg>
